assets/Woman with veil/Default/Flat/woman_with_veil_flat_default.svg

<svg width="32" height="32" viewBox="0 0 32 32" fill="none" xmlns="http://www.w3.org/2000/svg">
<path d="M27 16.9999C27 8.03994 22.598 5.18994 22.598 5.18994L16 11.6899L9.40199 5.19C9.40199 5.19 5 8.04 5 17V30L27 29.9999V16.9999Z" fill="#E6E6E6"/>
<path d="M21.85 12H10.13V22.56H21.85V12Z" fill="#D3D3D3"/>
<path d="M23.178 11.9242C23.3864 11.4886 23.5 11.0057 23.5 10.4943C23.5 9.82197 23.3011 9.19697 22.9508 8.67614C22.6004 8.1553 22.4205 7.53977 22.4205 6.9053V6.89583C22.4205 5.07765 20.9432 3.60038 19.125 3.60038C18.9451 3.60038 18.7746 3.51515 18.6705 3.37311C18.0833 2.53977 17.108 2 16 2C14.9015 2 13.9261 2.53977 13.3295 3.37311C13.2254 3.52462 13.0549 3.60985 12.875 3.60985C11.0568 3.60985 9.57955 5.08712 9.57955 6.9053V6.91477C9.57955 7.54924 9.39962 8.1553 9.04924 8.68561C8.70833 9.19697 8.5 9.82197 8.5 10.4943C8.5 11.0057 8.61364 11.4886 8.82197 11.9242C8.88826 12.0663 8.88826 12.2367 8.82197 12.3788C8.61364 12.8049 8.5 13.2784 8.5 13.7898C8.5 15.5606 9.93939 17 11.7102 17H20.2803C22.0511 17 23.4905 15.5606 23.4905 13.7898C23.4905 13.2879 23.3769 12.8049 23.1686 12.3788C23.1117 12.2367 23.1117 12.0663 23.178 11.9242Z" fill="#F1A11E"/>
<path d="M8.97479 20.5368C10.2567 19.4723 11.7843 18.6941 13.46 18.3002C13.74 18.2402 13.94 17.9802 13.94 17.6902V14.7302C13.94 13.6002 14.84 12.6902 15.96 12.6702C17.12 12.6502 18.06 13.6202 18.06 14.7702V17.6902C18.06 17.9802 18.26 18.2302 18.54 18.3002C20.1333 18.678 21.5927 19.4012 22.8344 20.3863C21.3064 21.9645 18.7389 23 15.8293 23C13.0132 23 10.5176 22.03 8.97479 20.5368Z" fill="#FCB100"/>
<path d="M27 28.9998C27 25.5798 25.44 22.5198 22.99 20.5098C21.46 22.5098 19.09 23.6798 16.58 23.6798H16H15.43C12.91 23.6798 10.54 22.5098 9.02 20.5098C6.57 22.5198 5 25.5698 5 28.9998V29.9998H27V28.9998Z" fill="#F4F4F4"/>
<path d="M8.71426 20.0965C9.09736 19.6987 9.73042 19.6868 10.1282 20.0699L10.1313 20.0729C10.3667 20.2992 10.4672 20.613 10.4309 20.914C10.7143 20.8053 11.0435 20.8264 11.3206 20.9999L11.328 21.0044C11.6059 21.178 11.7691 21.4658 11.7948 21.769C12.051 21.6043 12.3789 21.5583 12.6861 21.6731L12.6943 21.6761C13.002 21.7907 13.2199 22.0407 13.3054 22.3334C13.5241 22.1207 13.837 22.0105 14.1613 22.0624L14.1699 22.0638C14.4944 22.1154 14.7574 22.3177 14.899 22.588C15.0716 22.3364 15.3568 22.1666 15.6851 22.1538L15.6911 22.1536C15.7938 22.1495 15.8934 22.1611 15.9878 22.1861C16.0798 22.1537 16.1782 22.1343 16.2809 22.1302L16.2842 22.1301C16.3869 22.126 16.4865 22.1376 16.5809 22.1626C16.6729 22.1302 16.7713 22.1108 16.874 22.1067L16.8795 22.1065C17.1547 22.0955 17.4084 22.1967 17.5963 22.3694C17.7344 22.1548 17.9543 21.9927 18.2233 21.9338L18.2309 21.9321C18.4997 21.873 18.7671 21.9281 18.9824 22.065C19.0806 21.8296 19.2683 21.6315 19.5225 21.5261L19.5297 21.5232C19.7835 21.4177 20.0559 21.4246 20.2917 21.521C20.3465 21.2724 20.4955 21.0446 20.7262 20.8957L20.7327 20.8915C20.9628 20.7428 21.2311 20.7005 21.4796 20.7523C21.4883 20.4989 21.5928 20.2486 21.7915 20.0605L21.7943 20.0579C22.1951 19.678 22.828 19.6949 23.208 20.0957C23.5879 20.4966 23.571 21.1295 23.1701 21.5094L23.1666 21.5128C22.9196 21.7466 22.5847 21.8299 22.2752 21.7658C22.264 22.0814 22.1039 22.3866 21.8186 22.5711L21.8104 22.5764C21.5254 22.7602 21.182 22.7808 20.8901 22.6618C20.822 22.9694 20.6101 23.24 20.2971 23.3701L20.2881 23.3738C19.9753 23.5034 19.6344 23.4625 19.3687 23.2939C19.2473 23.5841 18.9912 23.8127 18.6606 23.8854L18.6511 23.8875C18.3205 23.9599 17.9923 23.8597 17.7605 23.6471C17.59 23.9114 17.2979 24.0913 16.9597 24.1049L16.9532 24.1051C16.8505 24.1092 16.7509 24.0977 16.6565 24.0726C16.5645 24.105 16.4661 24.1244 16.3634 24.1285L16.36 24.1286C16.2574 24.1327 16.1578 24.1212 16.0634 24.0961C15.9714 24.1285 15.873 24.1479 15.7703 24.152L15.7632 24.1523C15.3646 24.1679 15.0115 23.948 14.8379 23.6168C14.6263 23.9251 14.2496 24.1016 13.8557 24.039L13.8449 24.0372C13.451 23.9741 13.148 23.689 13.0429 23.3301C12.7746 23.5908 12.3703 23.6896 11.9964 23.5504L11.9862 23.5466C11.6121 23.4068 11.3711 23.0669 11.3394 22.6938C11.0241 22.8963 10.6075 22.9125 10.2685 22.7008L10.2592 22.695C9.91998 22.4826 9.75208 22.1 9.79693 21.7273C9.44605 21.8618 9.03362 21.7921 8.74486 21.5143L8.74089 21.5105C8.34308 21.1274 8.33116 20.4943 8.71426 20.0965Z" fill="#D3D3D3"/>
<path d="M23.6212 24C22.7412 24.01 22.0112 24.75 22.0112 25.65V25.7469C21.946 25.7545 21.8811 25.7659 21.8168 25.7812C21.6952 25.3044 21.2025 24.9134 20.5613 24.92L12.1613 25.02C11.5639 25.0262 11.1068 25.3737 10.9606 25.8057C10.9046 25.7933 10.8481 25.7838 10.7913 25.7772V25.6798C10.7913 24.7798 10.0613 24.0398 9.18129 24.0298H8.09129C8.04129 24.0298 7.99129 24.0798 8.00129 24.1298C8.05066 25.1172 8.86045 25.9193 9.86274 25.9394C9.72092 26.0109 9.58857 26.1045 9.47126 26.2199L8.70126 26.9899C8.66126 27.0299 8.66126 27.0899 8.70126 27.1299C9.45126 27.7999 10.6113 27.7899 11.3213 27.0699L11.3574 27.0338L13.4949 30H19.3461L21.4049 26.9633L21.4812 27.0397C22.1912 27.7597 23.3512 27.7697 24.1012 27.0997C24.1412 27.0597 24.1412 26.9997 24.1012 26.9597L23.3312 26.1897C23.2142 26.0745 23.0822 25.9811 22.9407 25.9096C23.9426 25.889 24.7519 25.0871 24.8012 24.1C24.8112 24.05 24.7612 24 24.7112 24H23.6212Z" fill="#44911B"/>
<path d="M14.0601 25.2334L11.3501 26.3534L10.6901 24.7434C10.2801 23.7334 10.2801 22.6034 10.7101 21.5934C10.7901 21.4134 11.0001 21.3234 11.1801 21.4034C12.1801 21.8134 12.9801 22.6134 13.3901 23.6134L14.0601 25.2334Z" fill="#F70A8D"/>
<path d="M18.23 25.3335L20.94 26.4535L21.6 24.8435C22.01 23.8335 22.01 22.7035 21.58 21.6935C21.5 21.5135 21.29 21.4235 21.11 21.5035C20.11 21.9135 19.31 22.7135 18.9 23.7135L18.23 25.3335Z" fill="#F70A8D"/>
<path d="M8.63418 22.2558C8.51219 22.3145 8.46137 22.4809 8.53252 22.6375L9.26443 24.3504C9.46774 24.8202 9.86419 25.476 10.1996 25.7893C11.0129 26.5821 11.9989 26.6702 12.9341 26.2982C13.9507 25.8969 14.5911 25.0356 14.4894 23.8121C14.4691 23.5184 14.2963 22.9703 14.1946 22.6767C14.1743 22.6228 14.154 22.5714 14.1337 22.5201C14.1133 22.4687 14.093 22.4173 14.0727 22.3634L13.3712 20.7191C13.3001 20.5624 13.1476 20.4744 13.0155 20.5233C12.1209 20.8757 11.8871 22.4417 12.0802 23.8121C12.1107 24.047 11.8668 24.1547 11.7143 23.9589C10.8502 22.8528 9.52873 21.8936 8.63418 22.2558Z" fill="#FF6DC6"/>
<path d="M23.3658 22.3559C23.4878 22.4146 23.5386 22.581 23.4675 22.7376L22.7356 24.4505C22.5323 24.9203 22.1358 25.5761 21.8004 25.8894C20.9871 26.6822 20.0011 26.7703 19.0659 26.3983C18.0493 25.997 17.4089 25.1357 17.5106 23.9122C17.5309 23.6185 17.7037 23.0704 17.8054 22.7768C17.8257 22.7229 17.846 22.6715 17.8664 22.6201C17.8867 22.5687 17.907 22.5174 17.9273 22.4635L18.6288 20.8192C18.6999 20.6625 18.8524 20.5745 18.9845 20.6234C19.8791 20.9758 20.1129 22.5418 19.9198 23.9122C19.8893 24.1471 20.1332 24.2548 20.2857 24.059C21.1498 22.9529 22.4713 21.9937 23.3658 22.3559Z" fill="#FF6DC6"/>
<path d="M12.7794 23.1586C12.9297 22.481 13.621 22.0866 14.2823 22.299L14.8734 22.4911L14.8233 21.8944C14.7632 21.2168 15.2841 20.6201 15.9654 20.61C16.6567 20.5999 17.2077 21.1865 17.1476 21.8742L17.1075 22.4406L17.6786 22.2282C18.3198 21.9855 19.0311 22.3597 19.2115 23.0373C19.3818 23.6947 18.971 24.3723 18.2998 24.4936L17.7788 24.5948L18.2196 25.1207C18.6605 25.6466 18.5603 26.4557 17.9992 26.8501C17.4382 27.2446 16.6767 27.0726 16.3261 26.486L16.0556 26.0613L15.8452 26.4962C15.5246 27.0929 14.7632 27.2951 14.1921 26.9209C13.611 26.5467 13.4808 25.7477 13.9015 25.2016L14.3123 24.6656L13.7412 24.5847C13.07 24.4835 12.6292 23.8261 12.7794 23.1586Z" fill="#FFF478"/>
<path d="M16.0601 25C16.6123 25 17.0601 24.5523 17.0601 24C17.0601 23.4477 16.6123 23 16.0601 23C15.5078 23 15.0601 23.4477 15.0601 24C15.0601 24.5523 15.5078 25 16.0601 25Z" fill="#FFB02E"/>
<path d="M19.911 7.35994H16.7386C15.4791 7.35994 14.3049 6.73494 13.5947 5.70274C13.4716 5.53229 13.2159 5.5607 13.1401 5.75956L13.0644 5.94896C12.8276 6.4982 12.4015 6.92433 11.8712 7.16108C11.8428 7.17055 11.8049 7.18949 11.767 7.19896C11.5397 7.32206 10.9905 7.68191 10.9716 8.62888L11.1041 11.7918C11.2178 14.5948 13.3769 16.4698 16 16.4698C18.6231 16.4698 20.7822 14.5948 20.8958 11.7918L21.0189 8.7804C21.0189 7.45464 20.0909 7.35994 19.911 7.35994Z" fill="#FFC83D"/>
<path d="M13.3959 9.19678C13.9546 9.19678 14.4092 9.58504 14.7027 10.0206C14.4724 10.0901 14.2484 10.1542 14.0268 10.2177C13.5834 10.3447 13.1498 10.4688 12.6952 10.6267L12.2217 10.2006C12.0323 10.0206 12.0418 9.69867 12.2596 9.54716C12.5721 9.31988 12.9982 9.19678 13.3959 9.19678Z" fill="black"/>
<path d="M18.6136 9.19678C18.0549 9.19678 17.5909 9.58504 17.3068 10.0206C17.5537 10.0961 17.7944 10.1653 18.0338 10.2342C18.4555 10.3555 18.8734 10.4757 19.3143 10.6267L19.7878 10.2006C19.9772 10.0206 19.9677 9.69867 19.7499 9.54716C19.4374 9.31988 19.0113 9.19678 18.6136 9.19678Z" fill="black"/>
<path d="M13.5662 9.30086C12.9128 9.30086 12.3636 9.74593 12.2121 10.352C12.1742 10.5224 12.3068 10.6929 12.4867 10.6929H14.7121C14.8541 10.6929 14.9677 10.5603 14.9393 10.4278C14.8068 9.78381 14.248 9.30086 13.5662 9.30086Z" fill="white"/>
<path d="M18.4338 9.30078C19.0872 9.30078 19.6364 9.74586 19.788 10.3519C19.8258 10.5224 19.6933 10.6928 19.5228 10.6928H17.2974C17.1554 10.6928 17.0417 10.5603 17.0701 10.4277C17.1933 9.78374 17.7614 9.30078 18.4338 9.30078Z" fill="white"/>
<path d="M12.8845 10.4566C12.8845 9.96413 13.2822 9.56641 13.7747 9.56641C14.2671 9.56641 14.6648 9.96413 14.6648 10.4566C14.6648 10.5323 14.6554 10.6175 14.6269 10.6933H12.9129C12.894 10.6175 12.8845 10.5418 12.8845 10.4566Z" fill="#7D4533"/>
<path d="M19.1156 10.4566C19.1156 9.96413 18.7179 9.56641 18.2255 9.56641C17.733 9.56641 17.3353 9.96413 17.3448 10.4566C17.3448 10.5418 17.3542 10.6175 17.3732 10.6933H19.0872C19.1061 10.6175 19.1156 10.5418 19.1156 10.4566Z" fill="#7D4533"/>
<path d="M13.7651 9.94482C14.0492 9.94482 14.2765 10.1721 14.2765 10.4562C14.2765 10.5414 14.2576 10.6172 14.2102 10.6929H13.3106C13.2727 10.6172 13.2538 10.5414 13.2538 10.4562C13.2538 10.1721 13.4811 9.94482 13.7651 9.94482Z" fill="black"/>
<path d="M18.2349 9.94482C17.9508 9.94482 17.7235 10.1721 17.7235 10.4562C17.7235 10.5414 17.7425 10.6172 17.7898 10.6929H18.6894C18.7273 10.6172 18.7462 10.5414 18.7462 10.4562C18.7462 10.1721 18.519 9.94482 18.2349 9.94482Z" fill="black"/>
<path d="M13.6326 10.1058C13.6326 10.1947 13.5606 10.2668 13.4717 10.2668C13.3827 10.2668 13.3107 10.1947 13.3107 10.1058C13.3107 10.0169 13.3827 9.94482 13.4717 9.94482C13.5606 9.94482 13.6326 10.0169 13.6326 10.1058Z" fill="#ED9200"/>
<path d="M18.0928 10.1058C18.0928 10.1947 18.0208 10.2668 17.9319 10.2668C17.8429 10.2668 17.7709 10.1947 17.7709 10.1058C17.7709 10.0169 17.8429 9.94482 17.9319 9.94482C18.0208 9.94482 18.0928 10.0169 18.0928 10.1058Z" fill="#ED9200"/>
<path d="M15.6541 10.2897L15.1583 12.0282C15.0554 12.384 15.2986 12.75 15.6447 12.75H16.3743C16.7204 12.75 16.9636 12.384 16.8607 12.0282L16.365 10.2897C16.2621 9.90342 15.7663 9.90342 15.6541 10.2897Z" fill="#ED9200"/>
<path d="M16.0005 13.7057C15.45 13.7057 14.9301 13.5669 14.4918 13.3212C14.3389 13.2358 14.186 13.4174 14.2777 13.5669C14.6447 14.1542 15.2767 14.5493 16.0005 14.5493C16.7243 14.5493 17.3563 14.1542 17.7233 13.5669C17.8151 13.4174 17.652 13.2465 17.5093 13.3212C17.0607 13.5669 16.551 13.7057 16.0005 13.7057Z" fill="#990839"/>
<path d="M19.3996 8.64804C19.4375 8.67645 19.4848 8.68592 19.5322 8.68592C19.6269 8.68592 19.7121 8.63857 19.7594 8.54388C19.8352 8.4113 19.7973 8.25032 19.6647 8.17456C19.6363 8.15562 18.7651 7.67266 17.7708 7.85259C17.6193 7.881 17.5246 8.02304 17.553 8.16509C17.5814 8.3166 17.7235 8.4113 17.8655 8.38289C18.6018 8.25295 19.2668 8.58264 19.3821 8.63976C19.3928 8.64509 19.3996 8.64804 19.3996 8.64804Z" fill="#D37034"/>
<path d="M12.2309 8.55317C12.2878 8.6384 12.373 8.68575 12.4677 8.68575C12.515 8.68575 12.5624 8.67628 12.6003 8.65734C12.6097 8.64787 13.3294 8.25014 14.1344 8.39218C14.2859 8.42059 14.4184 8.31643 14.4374 8.17438C14.4658 8.03234 14.3616 7.89029 14.2196 7.86188C13.2663 7.68031 12.4349 8.1254 12.3345 8.17916C12.3302 8.18148 12.3256 8.18385 12.3256 8.18385C12.2025 8.25961 12.1552 8.42059 12.2309 8.55317Z" fill="#D37034"/>
<path d="M8.99214 7.31C8.83381 7.31 8.67549 7.26 8.53695 7.15C8.21041 6.9 8.15103 6.42 8.40831 6.1C8.50727 5.97 10.8624 3 15.998 3C21.1337 3 23.4888 5.97 23.5878 6.1C23.8451 6.43 23.7857 6.9 23.4591 7.15C23.1326 7.4 22.6675 7.35 22.4201 7.02C22.4102 7 21.8957 6.37 20.8666 5.76C19.4713 4.93 17.8386 4.5 15.998 4.5C14.1575 4.5 12.5248 4.93 11.1295 5.76C10.0905 6.38 9.57596 7.02 9.57596 7.02C9.42753 7.21 9.20984 7.31 8.99214 7.31Z" fill="#D3D3D3"/>
</svg>

<svg xmlns="http://www.w3.org/2000/svg" width="32" height="32" fill="none"><path fill="#E6E6E6" d="M27 17c0-8.96-4.402-11.81-4.402-11.81L16 11.69l-6.598-6.5S5 8.04 5 17v13h22V17Z"/><path fill="#D3D3D3" d="M21.85 12H10.13v10.56h11.72V12Z"/><path fill="#F1A11E" d="M23.178 11.924c.208-.435.322-.918.322-1.43 0-.672-.199-1.297-.55-1.818a3.162 3.162 0 0 1-.53-1.77v-.01A3.298 3.298 0 0 0 19.126 3.6a.565.565 0 0 1-.454-.227A3.252 3.252 0 0 0 16 2c-1.098 0-2.074.54-2.67 1.373a.549.549 0 0 1-.455.237A3.298 3.298 0 0 0 9.58 6.905v.01c0 .634-.18 1.24-.53 1.77a3.262 3.262 0 0 0-.55 1.81c0 .51.114.994.322 1.43a.544.544 0 0 1 0 .454A3.213 3.213 0 0 0 11.71 17h8.57c1.771 0 3.21-1.44 3.21-3.21 0-.502-.113-.985-.321-1.411a.583.583 0 0 1 .009-.455Z"/><path fill="#FCB100" d="M8.975 20.537A10.937 10.937 0 0 1 13.46 18.3c.28-.06.48-.32.48-.61v-2.96c0-1.13.9-2.04 2.02-2.06 1.16-.02 2.1.95 2.1 2.1v2.92c0 .29.2.54.48.61a10.986 10.986 0 0 1 4.294 2.086C21.306 21.965 18.74 23 15.83 23c-2.816 0-5.311-.97-6.854-2.463Z"/><path fill="#F4F4F4" d="M27 29c0-3.42-1.56-6.48-4.01-8.49-1.53 2-3.9 3.17-6.41 3.17h-1.15c-2.52 0-4.89-1.17-6.41-3.17A10.949 10.949 0 0 0 5 29v1h22v-1Z"/><path fill="#D3D3D3" d="M8.714 20.096a1 1 0 0 1 1.414-.026l.003.003c.236.226.336.54.3.841a.999.999 0 0 1 .89.086l.007.004a.999.999 0 0 1 .467.765.998.998 0 0 1 .891-.096l.008.003a.998.998 0 0 1 .611.657.999.999 0 0 1 .856-.27h.009a.998.998 0 0 1 .729.525.999.999 0 0 1 .786-.434h.006a1 1 0 0 1 .297.032c.092-.032.19-.052.293-.056h.003a1 1 0 0 1 .297.033c.092-.033.19-.052.293-.056h.006a.997.997 0 0 1 .716.262.997.997 0 0 1 .627-.435l.008-.002a.997.997 0 0 1 .751.133.997.997 0 0 1 .54-.539l.008-.003a.996.996 0 0 1 .762-.002.997.997 0 0 1 .434-.625l.007-.005a.997.997 0 0 1 .747-.139.997.997 0 0 1 .311-.691l.003-.003a1 1 0 0 1 1.376 1.451l-.003.004a1 1 0 0 1-.892.253 1 1 0 0 1-.456.805l-.009.005a.999.999 0 0 1-.92.086 1 1 0 0 1-.593.708l-.009.004a.999.999 0 0 1-.92-.08.999.999 0 0 1-.707.591l-.01.002a.999.999 0 0 1-.89-.24.999.999 0 0 1-.801.458h-.007a.998.998 0 0 1-.296-.032c-.093.032-.19.051-.294.055h-.003a.997.997 0 0 1-.297-.032c-.092.032-.19.052-.293.056h-.007a1 1 0 0 1-.925-.535 1 1 0 0 1-.982.422l-.011-.002a1 1 0 0 1-.802-.707 1 1 0 0 1-1.047.22l-.01-.003a1 1 0 0 1-.647-.853 1 1 0 0 1-1.07.007l-.01-.006a1 1 0 0 1-.462-.968 1 1 0 0 1-1.052-.213l-.004-.003a1 1 0 0 1-.027-1.415Z"/><path fill="#44911B" d="M23.621 24c-.88.01-1.61.75-1.61 1.65v.097a1.68 1.68 0 0 0-.194.034c-.122-.477-.614-.868-1.256-.861l-8.4.1c-.597.006-1.054.354-1.2.786a1.68 1.68 0 0 0-.17-.029v-.097c0-.9-.73-1.64-1.61-1.65h-1.09c-.05 0-.1.05-.09.1.05.987.86 1.79 1.862 1.81a1.557 1.557 0 0 0-.392.28l-.77.77c-.04.04-.04.1 0 .14.75.67 1.91.66 2.62-.06l.036-.036L13.495 30h5.851l2.059-3.037.076.077c.71.72 1.87.73 2.62.06.04-.04.04-.1 0-.14l-.77-.77a1.555 1.555 0 0 0-.39-.28 1.91 1.91 0 0 0 1.86-1.81c.01-.05-.04-.1-.09-.1h-1.09Z"/><path fill="#F70A8D" d="m14.06 25.233-2.71 1.12-.66-1.61c-.41-1.01-.41-2.14.02-3.15a.36.36 0 0 1 .47-.19c1 .41 1.8 1.21 2.21 2.21l.67 1.62ZM18.23 25.334l2.71 1.12.66-1.61c.41-1.01.41-2.14-.02-3.15a.36.36 0 0 0-.47-.19c-1 .41-1.8 1.21-2.21 2.21l-.67 1.62Z"/><path fill="#FF6DC6" d="M8.634 22.256c-.122.058-.173.225-.101.381l.731 1.713c.204.47.6 1.126.936 1.44.813.792 1.799.88 2.734.508 1.017-.401 1.657-1.262 1.555-2.486-.02-.294-.193-.842-.294-1.135a9.985 9.985 0 0 0-.061-.157 9.424 9.424 0 0 1-.061-.157l-.702-1.644c-.07-.157-.223-.245-.356-.196-.894.353-1.128 1.919-.935 3.29.03.234-.213.342-.366.146-.864-1.106-2.185-2.065-3.08-1.703ZM23.366 22.356c.122.059.173.225.102.382l-.732 1.713c-.204.47-.6 1.125-.936 1.438-.813.793-1.799.881-2.734.51-1.017-.402-1.657-1.263-1.555-2.487.02-.293.193-.842.294-1.135l.061-.157.061-.157.702-1.644c.07-.156.223-.244.355-.196.895.353 1.129 1.919.936 3.29-.03.234.213.342.366.146.864-1.106 2.185-2.065 3.08-1.703Z"/><path fill="#FFF478" d="M12.78 23.159a1.166 1.166 0 0 1 1.502-.86l.591.192-.05-.597a1.166 1.166 0 1 1 2.324-.02l-.04.567.572-.213c.64-.243 1.352.132 1.533.81.17.657-.241 1.334-.912 1.456l-.521.1.44.527c.441.526.341 1.335-.22 1.73a1.162 1.162 0 0 1-1.673-.365l-.27-.425-.21.435a1.156 1.156 0 0 1-1.654.425 1.188 1.188 0 0 1-.29-1.72l.41-.535-.57-.081a1.176 1.176 0 0 1-.963-1.426Z"/><path fill="#FFB02E" d="M16.06 25a1 1 0 1 0 0-2 1 1 0 0 0 0 2Z"/><path fill="#FFC83D" d="M19.911 7.36h-3.172a3.82 3.82 0 0 1-3.144-1.657.258.258 0 0 0-.455.057l-.076.189c-.236.55-.662.975-1.193 1.212-.028.01-.066.028-.104.038-.227.123-.776.483-.795 1.43l.132 3.163c.114 2.803 2.273 4.678 4.896 4.678 2.623 0 4.782-1.875 4.896-4.678l.123-3.012c0-1.325-.928-1.42-1.108-1.42Z"/><path fill="#000" d="M13.396 9.197c.559 0 1.013.388 1.307.824-.23.07-.455.133-.676.197-.444.127-.877.25-1.332.409l-.473-.426c-.19-.18-.18-.502.038-.654a1.99 1.99 0 0 1 1.136-.35ZM18.614 9.197c-.56 0-1.023.388-1.307.824.247.075.487.144.727.213.422.121.84.242 1.28.393l.474-.426c.19-.18.18-.502-.038-.654a1.99 1.99 0 0 0-1.136-.35Z"/><path fill="#fff" d="M13.566 9.3c-.653 0-1.202.446-1.354 1.052-.038.17.095.34.275.34h2.225c.142 0 .256-.132.227-.264A1.401 1.401 0 0 0 13.566 9.3ZM18.434 9.3c.653 0 1.202.446 1.354 1.052.038.17-.095.34-.265.34h-2.226c-.142 0-.255-.132-.227-.264A1.391 1.391 0 0 1 18.434 9.3Z"/><path fill="#7D4533" d="M12.884 10.457a.89.89 0 1 1 1.78 0c0 .075-.009.16-.037.236h-1.714a.956.956 0 0 1-.029-.236ZM19.116 10.457a.89.89 0 0 0-.89-.89.875.875 0 0 0-.881.89c0 .085.01.16.028.236h1.714a.956.956 0 0 0 .029-.236Z"/><path fill="#000" d="M13.765 9.945a.51.51 0 0 1 .511.511.427.427 0 0 1-.066.237h-.9a.513.513 0 0 1 .455-.748ZM18.235 9.945a.51.51 0 0 0-.511.511c0 .085.018.161.066.237h.9a.513.513 0 0 0-.455-.748Z"/><path fill="#ED9200" d="M13.633 10.106a.16.16 0 1 1-.322 0 .16.16 0 0 1 .322 0ZM18.093 10.106a.16.16 0 1 1-.322 0 .16.16 0 0 1 .322 0ZM15.654 10.29l-.496 1.738c-.103.356.14.722.487.722h.73c.345 0 .589-.366.486-.722l-.496-1.738c-.103-.387-.599-.387-.71 0Z"/><path fill="#990839" d="M16 13.706c-.55 0-1.07-.14-1.508-.385-.153-.085-.306.096-.214.246.367.587.999.982 1.722.982.724 0 1.356-.395 1.723-.982.092-.15-.071-.32-.214-.246a3.118 3.118 0 0 1-1.509.385Z"/><path fill="#D37034" d="M19.4 8.648a.217.217 0 0 0 .132.038c.095 0 .18-.047.227-.142a.265.265 0 0 0-.094-.37c-.029-.018-.9-.501-1.894-.321a.267.267 0 0 0-.218.312c.028.152.17.246.313.218.736-.13 1.4.2 1.516.257l.018.008ZM12.23 8.553a.282.282 0 0 0 .238.133c.047 0 .094-.01.132-.029.01-.01.73-.407 1.534-.265a.256.256 0 0 0 .303-.218c.029-.142-.075-.284-.217-.312-.954-.182-1.785.263-1.886.317l-.008.005a.273.273 0 0 0-.095.37Z"/><path fill="#D3D3D3" d="M8.992 7.31a.723.723 0 0 1-.455-.16.745.745 0 0 1-.129-1.05c.1-.13 2.454-3.1 7.59-3.1 5.136 0 7.49 2.97 7.59 3.1.257.33.198.8-.129 1.05a.734.734 0 0 1-1.039-.13c-.01-.02-.524-.65-1.553-1.26-1.396-.83-3.028-1.26-4.869-1.26-1.84 0-3.473.43-4.868 1.26-1.04.62-1.554 1.26-1.554 1.26a.742.742 0 0 1-.584.29Z"/></svg>
